X:442
T:Far O'Er The Sea 
C:Joe Buchanan's Scottish Tome - Page 057.0
I:057 0
R:March
Z:Carl Allison
L:1/8
K:D
A | A2 BA d2 d>c | BAB<d A2 dc | B2 B>c dcdf | e2 e>f e3f A2 |
BA d2 dc | B>cde f3A | B2 e>d dcBc | d2 d>f d2 |]
dc | B2 GB d2 cB | BAA>B A2 dc | B2 B>c dcdf | e2 ef e3 A |
f2 gf B2 cd | e2 fe A2 dc | B2 e>d dcBc | d2 d>f d2 A2 |
d>ef>e d2 Ad | cBB>c B2 z2 | e>fgf e3 d | cAc>A A3f |
f>gag fd de/f/ | gBB>c B3 e | edcB BAde | f2 gc d2 z2 |

